X: 10119
T: Dílín ó Deamhas
R: slip jig
M: 9/8
K: Gmajor
BAB d2e d3|BAB d2B A3|[M:12/8]BAB d2e d2 B A2G|
M:9/8
GAB G2E D3|BAB E2F G2G|BAB d2B A2A|
M:12/8
BAB d2e d2 B A2G|[M:9/8]GAB G2E D3|

